X:1
T:IT DOESN'T RAIN ANYMORE
C:Kevin Cavanaugh
Z:All Rights Reserved
L:1/8
Q:1/4=120
M:4/4
K:Bb
V:1 treble nm="MusicXML Part"
%%MIDI program 0
V:1
"Eb" E2 DC"Bb/Eb" DC B,2 |"Ab/Eb" _A2 A2"Eb" G2 E2 |"Eb" E2 DC"Bb/Eb" DC B,2 | %3
w: |||
w: |||
"Ab/Eb" _A2 A2"Eb" G2 E2 |: z"F" z2 z2 F FD |"Bb" FDFD FD F2 |"Eb/Bb" F2 G2 z FDE | %7
w: |I'm kind a|hurt _ by the feel ings you|left me I wan na|
w: |* I can't|car ry on like this _ for|ev er walk ing a|
"Bb" F2 FF FB A2 |"Eb/Bb" A2 G2 z2 FE |"Gm" DDDE DDCC |"Ab/C" C2 B,2 z2 B,D |"Eb" EDCB, B,B,B,D | %12
w: from your heart _ in dis|guise _ I'm no|win ner ev er since _ you _|left me now that|some one else has made you _ their|
w: round on ly wish ing to|sleep _ I don't|drown _ in the sor row when I|slum ber on ly|day to day of ev' ry wak ing|
"Bb/F" D2 C2"F" z FFD |"Bb" FDFD FD F2 |"Eb/Bb" F2 G2- (3:2:2G2 F DE |"Bb" FF FF/F/ FB A2 | %16
w: prize _ And ev' ry|bod y thinks that I was a|jok er _ I on ly|want ed you for the best of my|
w: week _ May be to|mor row you'll _ change _ your|heart, girl _ May be to|mor row you'll dis _ cov er the|
"Eb/Bb" A2 G2- GGFE |"Gm" DDDD DEDC |"Ab/C" C2 B,2 (3E2 D2 C2 |"Eb" B,8 |"Eb/F" z2 FF ED B,2 | %21
w: pride _ _ but I'm not|laugh ing in the face of "their de|cis ions" May be they're|right?|How's the weath er out|
w: light _ _ _ and I|tell you ev er since you've been _|gone, girl I have n't|tried||
"F/Bb" B,F- F2"Bb" F2 F2 |"F/Bb" F2 FF"Bb" FF B2 |"Gb/Ab" B2"Db/Ab" _A6- |"Gb/Ab" A4"Db/Ab" z2 z2 | %25
w: side? IT _ DOES N'T|RAIN AN Y MORE IT JUST|POURS _|_|
w: ||||
"F/Bb" F4"Bb" F2 F2 |"F/Bb" F2 FF"Bb" FF B2 |"Gb/Ab" B2"Db/Ab" _A6- |"Gb/Ab" A4"Db/Ab" z2 z2 | %29
w: IT DOES N"T|RAIN AN Y MORE IT JUST|POURS _|_|
w: ||||
"F/Bb" F4"Bb" F2 F2 |"F/Bb" F2 FF"Bb" FF B2 |"Gb/Ab" B2"Db/Ab" _A6- |"Gb/Ab" A4"Db/Ab" z2 z2 :| %33
w: IT DOES N"T|RAIN AN Y MORE IT JUST|POURS _|_|
w: ||||
"Eb/F" z2 z2"F7" z2 z2 |"Gm" G2 G2 G2 D2 |"C" =E3 C- C<C- C2 |"Gm" G2 G2 AA G2 |"C" =E4 z2 F2 | %38
w: |I still see us|hand in hand _ _|I still see you with|me but|
w: |||||
"Gm" G2 G2 GF D2 |"C" =E3 C- C<C- C2 |"Eb" E4 E4 | G4 E4 |"Fsus4" B6 A2 |"F" F6 z2 | %44
w: I don't think we'll be|hand in hand _ _|When I|wake up|from this|dream|
w: ||||||
"F/Bb" F4"Bb" F2 F2 |"F/Bb" F2 FF"Bb" FF B2 |"Gb/Ab" B2"Db/Ab" _A6- |"Gb/Ab" A4"Db/Ab" z2 z2 |] %48
w: IT DOES N"T|RAIN AN Y MORE IT JUST|POURS _|_|
w: ||||

